X: 2
T: Kitty's Rambles
R: jig
M: 6/8
L: 1/8
K: Dmix
|:FDD c2A|dA/B/d efg|fed ^cAG|F/G/AF GFE|FDD c2A|dA/B/d efg|fed cAG|1Ad^c dAG:|2FAd d2A|:dfa dfa|daf g2f|ecg ecg|ecg gfe|~f3 gfg|~a3 efg|fed cAG|1Ad^c d2A:|2Ad^c dfg||:afd d^cd|Adf afd|gec cBc|Gce gfe|fAf gfg|~a3 efg|fed cAG|1Ad^c dfg:|1Ad^c dAG|


Tune 1843	Setting 27695

